images/yt.svg

<svg xmlns="http://www.w3.org/2000/svg" fill="none" viewBox="0 0 48 48">
  <path fill="#000" d="M31.8296 14H16.1703C13.3193 14 11 16.436 11 19.4302v9.1396C11 31.564 13.3193 34 16.1703 34h15.6593C34.6806 34 37 31.564 37 28.5698v-9.1396C37 16.436 34.6806 14 31.8296 14Zm4.1092 14.5698c0 2.3814-1.8434 4.3191-4.1092 4.3191H16.1703c-2.2657 0-4.1091-1.9377-4.1091-4.3191v-9.1396c0-2.3814 1.8434-4.3191 4.1091-4.3191h15.6593c2.2658 0 4.1092 1.9377 4.1092 4.3191v9.1396Z"/>
  <path fill="#000" d="m28.7014 23.799-7.3516-4.5085c-.1632-.1001-.3669-.1017-.5319-.0027-.1651.099-.2669.2829-.2669.482v9.0159c0 .1991.1018.383.2666.482.0819.0491.1731.0736.264.0736.0928 0 .1853-.0255.2682-.0763l7.3516-4.5073c.1624-.0996.2625-.2822.2625-.4794s-.0998-.3798-.2625-.4793Zm-7.0892 4.0174v-7.0773l5.771 3.5392-5.771 3.5381Z"/>
  <circle cx="24" cy="24" r="23.5" stroke="#000"/>
</svg>

<svg width="48" height="48" viewBox="0 0 48 48" fill="none" xmlns="http://www.w3.org/2000/svg">
<circle cx="24" cy="24" r="23.5" stroke="black"/>
<path d="M31.8296 14H16.1703C13.3193 14 11 16.436 11 19.4302V28.5698C11 31.564 13.3193 34 16.1703 34H31.8296C34.6806 34 37 31.564 37 28.5698V19.4302C37 16.436 34.6806 14 31.8296 14ZM35.9388 28.5698C35.9388 30.9512 34.0954 32.8889 31.8296 32.8889H16.1703C13.9046 32.8889 12.0612 30.9512 12.0612 28.5698V19.4302C12.0612 17.0488 13.9046 15.1111 16.1703 15.1111H31.8296C34.0954 15.1111 35.9388 17.0488 35.9388 19.4302V28.5698Z" fill="black"/>
<path d="M28.7014 23.799L21.3498 19.2905C21.1866 19.1904 20.9829 19.1888 20.8179 19.2878C20.6528 19.3868 20.551 19.5707 20.551 19.7698V28.7857C20.551 28.9848 20.6528 29.1687 20.8176 29.2677C20.8995 29.3168 20.9907 29.3413 21.0816 29.3413C21.1744 29.3413 21.2669 29.3158 21.3498 29.265L28.7014 24.7577C28.8638 24.6581 28.9639 24.4755 28.9639 24.2783C28.9639 24.0811 28.8641 23.8985 28.7014 23.799ZM21.6122 27.8164V20.7391L27.3832 24.2783L21.6122 27.8164Z" fill="black"/>
</svg>
